X: 1386
T: An Seanduine Dóite
R: jig
M: 6/8
K: Gmajor
GBe dBG|BcB B2A|GBe dBG|ABA A2(G|
G3) A3|BBB BAG|GBd g2a|bag (3efg e|
dBG B2(A|A5) d|g3 gab|e3 e2d|
g3 gab|eee e2(d|d5) d|def gfe|
dBd g2a|bag (3efg e|dBG A2 (G|G6)||

